X: 5
T: The Kinnegad Slashers
R: jig
M: 6/8
L: 1/8
K: Dmaj
ded dAF | GBA ABc | ded dAF | Eee e2 f ||ded dAF | GBA A ag | fef dBA | Bdd d2 :|dfa afd | cde ecA | dfa afd | faa a2 A ||dfa afd | cde eag | {a}fef dBA | Bdd d2 :|dAF dAF | ABA ABc | dAF dAF | Eee e2 f ||dAF dAF | ABA Aag | {a}fef dBA | Bdd d2 :|


Tune 1258	Setting 27632

